emblems/scalable/vcs-update-required.svg

<svg height="24" viewBox="0 0 24 24" width="24" xmlns="http://www.w3.org/2000/svg"><g transform=""><path d="m12 1a11 11 0 0 0 -11 11 11 11 0 0 0 11 11 11 11 0 0 0 11-11 11 11 0 0 0 -11-11z" fill="#3daee9"/><path d="m12 2.5714286v1.5714285a7.8571429 7.8571429 0 0 0 -7.8571429 7.8571429 7.8571429 7.8571429 0 0 0 7.8571429 7.857143 7.8571429 7.8571429 0 0 0 7.857143-7.857143h-3.142857a4.7142857 4.7142857 0 0 1 -4.714286 4.714286 4.7142857 4.7142857 0 0 1 -4.7142857-4.714286 4.7142857 4.7142857 0 0 1 4.7142857-4.7142857v1.5714286l4.714286-3.1428572z" fill="#fff"/></g></svg>

<?xml version="1.0" encoding="UTF-8" standalone="no"?>
<!-- Created with Inkscape (http://www.inkscape.org/) -->

<svg
   xmlns:dc="http://purl.org/dc/elements/1.1/"
   xmlns:cc="http://creativecommons.org/ns#"
   xmlns:rdf="http://www.w3.org/1999/02/22-rdf-syntax-ns#"
   xmlns:svg="http://www.w3.org/2000/svg"
   xmlns="http://www.w3.org/2000/svg"
   xmlns:sodipodi="http://sodipodi.sourceforge.net/DTD/sodipodi-0.dtd"
   xmlns:inkscape="http://www.inkscape.org/namespaces/inkscape"
   width="24"
   height="24"
   viewBox="0 0 24 24"
   id="svg2"
   version="1.1"
   inkscape:version="0.91 r13725"
   sodipodi:docname="vcs-update-required.svg">
  <defs
     id="defs4" />
  <sodipodi:namedview
     id="base"
     pagecolor="#dcdcdc"
     bordercolor="#666666"
     borderopacity="1.0"
     inkscape:pageopacity="0"
     inkscape:pageshadow="2"
     inkscape:zoom="15.839192"
     inkscape:cx="3.225667"
     inkscape:cy="24.152759"
     inkscape:document-units="px"
     inkscape:current-layer="layer1"
     showgrid="false"
     units="px" />
  <metadata
     id="metadata7">
    <rdf:RDF>
      <cc:Work
         rdf:about="">
        <dc:format>image/svg+xml</dc:format>
        <dc:type
           rdf:resource="http://purl.org/dc/dcmitype/StillImage" />
        <dc:title></dc:title>
      </cc:Work>
    </rdf:RDF>
  </metadata>
  <g
     inkscape:label="Layer 1"
     inkscape:groupmode="layer"
     id="layer1"
     transform="translate(0,-1028.3622)">
    <g
       transform="translate(0,1028.3622)"
       id="g4135">
      <path
         inkscape:connector-curvature="0"
         id="path8062"
         class="ColorScheme-Highlight"
         d="M 12,1 A 11,11 0 0 0 1,12 11,11 0 0 0 12,23 11,11 0 0 0 23,12 11,11 0 0 0 12,1 Z"
         style="color:#3daee9;fill:currentColor;fill-opacity:1;stroke:none" />
      <path
         inkscape:connector-curvature="0"
         id="path8064"
         d="m 12,2.5714286 0,1.5714285 A 7.8571429,7.8571429 0 0 0 4.1428571,12 7.8571429,7.8571429 0 0 0 12,19.857143 7.8571429,7.8571429 0 0 0 19.857143,12 l -3.142857,0 A 4.7142857,4.7142857 0 0 1 12,16.714286 4.7142857,4.7142857 0 0 1 7.2857143,12 4.7142857,4.7142857 0 0 1 12,7.2857143 L 12,8.8571429 16.714286,5.7142857 12,2.5714286 Z"
         style="fill:#ffffff;fill-opacity:1;stroke:none" />
    </g>
  </g>
</svg>
